src/svg/xing.svg

<svg height="1000" width="750.0" xmlns="http://www.w3.org/2000/svg">
    <path d="m317.8 410.2c-3.5 6.4-49.2 86.7-136.9 241.2-9.6 16.2-21.1 24.4-34.6 24.4h-127.2c-15 0-23.6-14.7-16.6-28.1l134.8-237c0.4 0 0.4-0.2 0-0.5l-85.7-147.7c-8.4-15.2 0.5-27.5 16.6-27.5h127.1c14.3 0 26 8 35.2 23.8z m429.5-320.2l-281.3 494.2v0.6l178.9 325.4c7.6 13.8 0.4 27.5-16.6 27.5h-127.3c-14.9 0-26.6-7.8-35.2-23.8l-180.4-329.1c6.4-11.4 100.5-177.4 282.8-498.5 8.9-15.8 20.3-23.8 34.1-23.8h128.4c15.6 0 24 13.1 16.6 27.5z" />
  </svg>

<svg height="1000" width="750" xmlns="http://www.w3.org/2000/svg"><path d="M317.8 410.2c-3.5 6.4 -49.2 86.7 -136.9 241.2 -9.6 16.2 -21.1 24.4 -34.6 24.4H19.1c-15 0 -23.6 -14.7 -16.6 -28.1l134.8 -237c.4 0 .4 -.2 0 -.5L51.6 262.5C43.2 247.3 52.1 235 68.2 235h127.1c14.3 0 26 8 35.2 23.8l87.3 151.4zM747.3 90L466 584.2v.6l178.9 325.4c7.6 13.8 .4 27.5 -16.6 27.5H501c-14.9 0 -26.6 -7.8 -35.2 -23.8L285.4 584.8C291.8 573.4 385.9 407.4 568.2 86.3c8.9 -15.8 20.3 -23.8 34.1 -23.8h128.4c15.6 0 24 13.1 16.6 27.5z"/></svg>
